!!!COM: Music21
!!!OTL: Marcha Procesional de San Pedro de Vilas
!!!OMV: pezas_marchas_marcha-procesional-de-san-pedro-de-vilas_marcha-procesional-de-san-pedro-de-vilas-partitura.musicxml
**kern
*part1
*staff1
*I"Bagpipes
*I'Bag
*clefG^2
*k[]
*M3/8
=1
!LO:TX:a:t=Moderato
24ggLL
24aa
24ggJJ
8eeL
8ccJ
=
4.cc
=
16bLL
16cc
16dd
16b
16cc
16ddJJ
=
24eeLL
24ff
24eeJJ
4cc
=
24ggLL
24aa
24ggJJ
8eeL
8ccJ
=
4.cc
=
16bLL
16cc
16dd
16b
16cc
16ddJJ
=
4.cc
!!linebreak:original
=
16bLL
16cc
16dd
16b
16cc
16ddJJ
=
24eeLL
24ff
24eeJJ
4cc
=
16eeLL
16ff
16gg
16ee
16ff
16ggJJ
=
4.ff
=
16ffLL
16gg
16aa
16ff
16gg
16aaJJ
=
24ggLL
24aa
24ggJJ
8eeL
8ggJ
=
16ffLL
16ee
16dd
16ee
16dd
16eeJJ
!!linebreak:original
=
4.dd
=
16bLL
16cc
16dd
16b
16cc
16ddJJ
=
24eeLL
24ff
24eeJJ
4cc
=
16eeLL
16ff
16gg
16ee
16ff
16ggJJ
=
4.ff
=
16ffLL
16gg
16aa
16ff
16gg
16aaJJ
=
24ggLL
24aa
24ggJJ
8eeL
8ggJ
!!linebreak:original
=
16ffMLL
16ee
16dd
16ee
16ff
16ggJJ
=
4.ee
=||
*M3/8
!LO:TX:a:t=Moderato
24ggLL
24aa
24ggJJ
8eeL
8ccJ
=
4.cc
=
16bLL
16cc
16dd
16b
16cc
16ddJJ
=
24eeLL
24ff
24eeJJ
4cc
=
24ggLL
24aa
24ggJJ
8eeL
8ccJ
=
4.cc
!!linebreak:original
=
16bLL
16cc
16dd
16b
16cc
16ddJJ
=
4.cc
=
16bLL
16cc
16dd
16b
16cc
16ddJJ
=
24eeLL
24ff
24eeJJ
4cc
=
16eeLL
16ff
16gg
16ee
16ff
16ggJJ
=
4.ff
=
16ffLL
16gg
16aa
16ff
16gg
16aaJJ
!!pagebreak:original
=
24ggLL
24aa
24ggJJ
8eeL
8ggJ
=
16ffLL
16ee
16dd
16ee
16dd
16eeJJ
=
4.dd
=
16bLL
16cc
16dd
16b
16cc
16ddJJ
=
24eeLL
24ff
24eeJJ
4cc
=
16eeLL
16ff
16gg
16ee
16ff
16ggJJ
=
4.ff
!!linebreak:original
=
16ffLL
16gg
16aa
16ff
16gg
16aaJJ
=
24ggLL
24aa
24ggJJ
8eeL
8ggJ
=
16ffMLL
16ee
16dd
16ee
16ff
16ggJJ
=
4ee
8ee
=||
8aaL
16aaL
16ff
16gg
16aaJJ
=
8ggL
16ggL
16ee
16ff
16ggJJ
=
8ffL
16ffL
16dd
16ee
16ffJJ
!!linebreak:original
=
16eeLL
16ffJ
8gg
8ccJ
=
8aaL
16aaL
16ff
16gg
16aaJJ
=
8ggL
16ggL
16ee
16ff
16ggJJ
=
16ffLL
16gg
16ff
16dd
16ee
16ffJJ
=
4ee
8cc
=||
8aaL
16aaL
16ff
16gg
16aaJJ
=
8ggL
16ggL
16ee
16ff
16ggJJ
!!linebreak:original
=
8ffL
16ffL
16dd
16ee
16ffJJ
=
16eeLL
16ffJ
8gg
8ccJ
=
8aaL
16aaL
16ff
16gg
16aaJJ
=
8ggL
16ggL
16ee
16ff
16ggJJ
=
16ffLL
16gg
16ff
16dd
16ee
16ffJJ
=
[4.ee
=
4ee]
16ccLL
16ccJJ
=||
*k[b-]
*F:
8ffL
8ff
8eeJ
!!linebreak:original
=
8ffL
8gg
8bb-J
=
16aaLL
16ggJJ
[4ff
=
8ffL]
8ccc
8cccJ
=
16cccLL
16bb-J
8aa
8ggJ
=
8ggL
8aa
8bb-J
=
16aaLL
16ggJJ
[4ff
=
8ffL]
8cc
8ccJ
=
8ffL
8ff
8eeJ
=
8ffL
8gg
8bb-J
=
16aaLL
16ggJJ
[4ff
!!linebreak:original
=
8ffL]
8ccc
8cccJ
=
16cccLL
16bb-J
8aa
8ggJ
=
8ggL
8aa
8ggJ
=
[4.ff
=
8ffL]
8cc
8ccJ
=||
8ffL
8ff
8eeJ
=
8ffL
8gg
8bb-J
=
16aaLL
16ggJJ
[4ff
=
8ffL]
8ccc
8cccJ
=
16cccLL
16bb-J
8aa
8ggJ
!!pagebreak:original
=
8ggL
8aa
8bb-J
=
16aaLL
16ggJJ
[4ff
=
8ffL]
8cc
8ccJ
=
8ffL
8ff
8eeJ
=
8ffL
8gg
8bb-J
=
16aaLL
16ggJJ
[4ff
=
8ffL]
8ccc
8cccJ
=
16cccLL
16bb-J
8aa
8ggJ
=
8ggL
8aa
8ggJ
=
[4.ff
!!linebreak:original
=
8ffL]
8gg
8ggJ
=||
*k[]
*C:
16ggLL
16ffJ
8ff
8eeJ
=
8eeL
8ff
8ggJ
=
16ffLL
16eeJJ
[4dd
=
8ddL]
8aa
8aaJ
=
16aaLL
16ggJ
8gg
8ffJ
=
8ffL
8gg
8aaJ
=
16ggMLL
16ffJJ
[4ee
=
8eeL]
8gg
8ggJ
!!linebreak:original
=
16ggLL
16ffJ
8ff
8eeJ
=
8eeL
8ff
8ggJ
=
16ffMLL
16eeJJ
[4dd
=
8ddL]
8aa
8aaJ
=
16aaLL
16ggJ
8gg
8ffJ
=
8ffL
8gg
8ffJ
=
[4.ee
=
8eeL]
8gg
8ggJ
=||
16ggLL
16ffJ
8ff
8eeJ
=
8eeL
8ff
8ggJ
!!linebreak:original
=
16ffLL
16eeJJ
[4dd
=
8ddL]
8aa
8aaJ
=
16aaLL
16ggJ
8gg
8ffJ
=
8ffL
8gg
8aaJ
=
16ggMLL
16ffJJ
[4ee
=
8eeL]
8gg
8ggJ
=
16ggLL
16ffJ
8ff
8eeJ
=
8eeL
8ff
8ggJ
=
16ffMLL
16eeJJ
[4dd
=
8ddL]
8aa
8aaJ
!!linebreak:original
=
16aaLL
16ggJ
8gg
8ffJ
=
8ffL
8gg
8ffJ
=
4.ee
==
*-
!!!system-decoration: s1,s2
